web/contenido/q3.svg

<svg height="130.745" viewBox="0 0 222.893 130.745" width="222.893" xmlns="http://www.w3.org/2000/svg"><path d="m8.815-53.79a38.553 38.553 0 0 1 -15.252 2.274 38.707 38.707 0 0 1 -36.463-36.584 38.564 38.564 0 0 1 41.924-40.328 38.639 38.639 0 0 1 35.006 35.147 38.443 38.443 0 0 1 -3.63 19.875l-3.505-3.5a13.09 13.09 0 0 0 -17.984-.694 12.854 12.854 0 0 0 -.45 18.6l12.458 12.466a.38.38 0 0 1 -.487.58l-11.093-7.767a.569.569 0 0 0 -.525-.069m34.759-7.34 6.452 4.518a.382.382 0 0 0 .547-.114 63.992 63.992 0 0 0 9.265-35.325 64.494 64.494 0 0 0 -62.144-62.2 64.26 64.26 0 0 0 -66.343 64.193c-.021 34.382 29.05 63.858 63.425 64.293a63.918 63.918 0 0 0 36.254-10.66l6.644 6.645a13.091 13.091 0 0 0 17.981.685 12.852 12.852 0 0 0 .451-18.6l-12.94-12.945a.32.32 0 0 1 .409-.49" fill="#6459b0" transform="translate(68.65 156.504)"/><path d="m82.108-78.212q-15.568 0-25.609-3.161a50.643 50.643 0 0 1 -17.481-9.377 3.428 3.428 0 0 1 -1.247-2.631 3.82 3.82 0 0 1 1.141-2.789l9.617-10.361q2.6-2.711 5.42-.212a28.015 28.015 0 0 0 11.423 5.792 76.669 76.669 0 0 0 16.737 1.434q17.639 0 17.639-5.473 0-2.709-2.976-3.373t-13.23-.665h-14.242a3.79 3.79 0 0 1 -2.789-1.143 3.731 3.731 0 0 1 -1.143-2.736v-9.139a3.8 3.8 0 0 1 1.143-2.789 3.8 3.8 0 0 1 2.789-1.143h14.242q7.281 0 10.122-1.036t2.842-3.533q0-4.57-12.857-4.569-18.49 0-28.267 9.35-2.816 2.6-5.472.212l-9.458-8.819q-2.5-2.5-.425-5.1 14.133-16.527 44.366-16.527 35.6 0 35.6 21.519a15.123 15.123 0 0 1 -7.81 13.814q-2.071 1.063.212 1.859 10.467 3.029 10.414 14.559 0 11.742-9.962 18.888t-30.739 7.149z" fill="#ff495d" transform="translate(100.086 155.997)"/></svg>

<svg xmlns="http://www.w3.org/2000/svg" width="222.893" height="130.745" viewBox="0 0 222.893 130.745"><defs><style>.a{fill:#6459b0;}.b{fill:#ff495d;}</style></defs><g transform="translate(68.65 155.997)"><g transform="translate(-68.65 -153.772)"><path class="a" d="M8.815-53.79A38.553,38.553,0,0,1-6.437-51.516,38.707,38.707,0,0,1-42.9-88.1,38.564,38.564,0,0,1-.976-128.428,38.639,38.639,0,0,1,34.03-93.281,38.443,38.443,0,0,1,30.4-73.406l-3.505-3.5A13.09,13.09,0,0,0,8.911-77.6a12.854,12.854,0,0,0-.45,18.6L20.919-46.534a.38.38,0,0,1-.487.58L9.339-53.721a.569.569,0,0,0-.525-.069m34.759-7.34,6.452,4.518a.382.382,0,0,0,.547-.114,63.992,63.992,0,0,0,9.265-35.325,64.494,64.494,0,0,0-62.144-62.2A64.26,64.26,0,0,0-68.65-90.058C-68.671-55.676-39.6-26.2-5.225-25.765a63.918,63.918,0,0,0,36.254-10.66l6.644,6.645a13.091,13.091,0,0,0,17.981.685,12.852,12.852,0,0,0,.451-18.6L43.165-60.64a.32.32,0,0,1,.409-.49" transform="translate(68.65 154.279)"/></g><g transform="translate(69.205 -155.997)"><path class="b" d="M82.108-78.212q-15.568,0-25.609-3.161A50.643,50.643,0,0,1,39.018-90.75a3.428,3.428,0,0,1-1.247-2.631,3.82,3.82,0,0,1,1.141-2.789l9.617-10.361q2.6-2.711,5.42-.212a28.015,28.015,0,0,0,11.423,5.792,76.669,76.669,0,0,0,16.737,1.434q17.639,0,17.639-5.473,0-2.709-2.976-3.373t-13.23-.665H69.3a3.79,3.79,0,0,1-2.789-1.143,3.731,3.731,0,0,1-1.143-2.736v-9.139a3.8,3.8,0,0,1,1.143-2.789,3.8,3.8,0,0,1,2.789-1.143H83.542q7.281,0,10.122-1.036t2.842-3.533q0-4.57-12.857-4.569-18.49,0-28.267,9.35-2.816,2.6-5.472.212l-9.458-8.819q-2.5-2.5-.425-5.1Q54.16-156,84.393-156q35.6,0,35.6,21.519a15.123,15.123,0,0,1-7.81,13.814q-2.071,1.063.212,1.859,10.467,3.029,10.414,14.559,0,11.742-9.962,18.888T82.108-78.212Z" transform="translate(-37.769 155.997)"/></g></g></svg>
